X: 12
T: Jimmy Ward's
R: jig
M: 6/8
L: 1/8
K: Gmaj
G3 GAB|AGE GED|~G3 AGE|GED DEF|
G3 GAB|AGE GAB|cBA BGE|1DED DEF:|2DED D3||
cBA BAG|ABA AGE|cBA BGE|EDE GAB|
cBA BAG|AAA ABc|dcA AGE|1GED DAB:|2GED DEF||


Tune 793	Setting 793

